svg/compress.svg

<svg xmlns="http://www.w3.org/2000/svg" viewBox="0 0 32 32" enable-background="new 0 0 32 32"><path d="M 28.28125 2.28125 L 19 11.59375 L 19 3 L 17 3 L 17 14 L 17 15 L 18 15 L 29 15 L 29 13 L 20.40625 13 L 29.71875 3.71875 L 28.28125 2.28125 z M 3 17 L 3 19 L 11.59375 19 L 2.28125 28.28125 L 3.71875 29.71875 L 13 20.40625 L 13 29 L 15 29 L 15 18 L 15 17 L 14 17 L 3 17 z" color="#000" overflow="visible" enable-background="accumulate"/></svg>

<svg xmlns="http://www.w3.org/2000/svg" viewBox="0 0 32 32"><path d="M28.28 2.28L19 11.595V3h-2v12h12v-2h-8.594l9.313-9.28-1.44-1.44zM3 17v2h8.594L2.28 28.28l1.44 1.44L13 20.405V29h2V17H3z"/></svg>
